X: 1
T: Coleraine
I: Coleraine	J-1	Am	jig
M: 6/8
R: jig
K: Am
E| "Am"EAA ABc| "E"Bee e2d| "Am"cBA ABc| "E"B^GE E2E|
   "Am"EAA ABc| "E"Bee e2d| "Am"cBA "E"B^GE| "Am"(A3 A2) :|
|:B| "C"c2c cdc| "G"Bdg g2^g| "Am"aed cBA| "E"^GBG E^FG|
   "Am"A^GA "E"BAB| "Am"cde "Dm"fed| "Am"cBA "E"B^GE| "Am"(A3 A2) :|
%%text Roaring Jelly  J-1
%%scale .5
%%text 08/29/98 

#include "RightHeader.h"
% ---------- set 21 ----------
% Lady of the Lake (G) / John Howett (D)
%%text Set 21
%%vskip -1cm
